X:1
T:Title
%%score { ( 1 2 ) | ( 3 4 ) }
L:1/8
Q:1/4=126
M:6/4
K:Bb
V:1 treble nm="Grand Piano"
V:2 treble 
V:3 bass 
V:4 bass 
V:1
 z6 .B6 | B6 G6 | z6 .c6 | c6 _A6 | e2 d2 c2 e4 f2 | g6 B6 | [Ac]2 c2 c2 [Ac]2 f2 e2 | %7
[M:13/8] [Bd]-[Bd]-[Bd]- [Bd]3 [_AB]-[AB]-[AB]-[AB]- [AB]3 |[M:6/4] e2 d2 c2 B4 c2 | [_Ad]6 [FA]6 | %10
 [_Af]2 e2 d2 c4 d2 | [Gc]6 G6 | e2 e2 e2 f4 e2 | g6 B6 | c2 d2 e2 [_Af]4 e2 | [Ge]12[K:bass] |] %16
V:2
 E2 G2 _A2 z2 G2 c2 | z2 G2 G2 z2 E2 E2 | C2 =E2 G2 z2 G2 _d2 | z2 _A2 A2 z2 .F4 | x12 | %5
 z2 e2 e2 z2 G2 G2 | x12 |[M:13/8] x13 |[M:6/4] G6 z6 | x12 | x12 | x12 | x12 | z2 e2 e2 z2 G2 G2 | %14
 B6 z6 | E2[K:bass] B,2 G,2 .E,6 |] %16
V:3
 E,2 G,2 _A,2 z2 E2[K:treble] [=A,E^F]2 | z2 E2 E2 z2[K:bass] B,2 B,2 | z6[K:treble] .C6 | %3
 z2 F2 F2 [CF]2 .C4 | [A,^F]2- [A,-DF-]2 [A,EF]2 [A,CF]4 [A,CA]2 | z2 [GB]2 [GB]2 z2 E2 E2 | %6
 z2[K:treble] A2 A2 z2 A2 A2 |[M:13/8][K:bass] [B,,,B,,]2 F,2 B,2 D2 C2 B,3 | %8
[M:6/4] z6[K:treble] [G,B,E]6 | [F,,F,]6 [B,D]6 | z2[K:treble] c2 B2 _A4 A2 | %11
 E,2 G,2 B,2 E2 D2[K:treble] _D2 | [^FA]2 [FA]2 [FA]2 [CEA]4 [=B,EA]2 | z2 [GB]2 [GB]2 z2 E2 E2 | %14
 [F,,F,]6 [F,B,D]4 G2 | E,2 B,,2 G,,2 .E,,6 |] %16
V:4
 z6 .B,6[K:treble] | B,6 G,6[K:bass] | C,2 =E,2 G,2[K:treble] z2 =E2 [_DEG]2 | C6 _A,6 | .C6 z6 | %5
 B,6 B,6 | [F,,F,]6[K:treble] [F,A,CE]6 |[M:13/8][K:bass] x13 |[M:6/4] [E,,E,]6[K:treble] G4 G2 | %9
 x12 | [B,,,B,,]6[K:treble] [B,D]6 | x10[K:treble] x2 | [CE]6 z6 | [B,E]6 B,6 | x12 | x12 |] %16

